X:2144
T:Nancy Dawson 
C:Traditional
O:Isle of Man
Z:Clague collection
N:One of the tunes plated in the Royal Navy to summon the men to the grog tub- The Oxford song book.
B:Kiaull Vannin #144 
M:6/8 
L:1/8
Q:160 
K:G 
G2G G2B|d2B G2G|A2A A2B|A2F D2D|G2G G2B|d2B G2G|A2A DEF|G3 G3|| 

